X: 170
T:Georgia Horseshoe - GDGD
M:4/4
R:
F:http://blackrosetheband.googlepages.com/ABCTUNES.ABC May 2009
S:Troublesome Creek String Band
K:GMix
"G"g3a gfde|"F"fgag fc2e|"G"dg2a gzG"D"A-|A)GAG "G"BG3|
"G"g3f gfde|"F"fzfg fc2e|"G"dg2a gzG"D"A-|A)GAG "G"BG3|
"G"(c-d3) D2d2|"D"d3d AFA2|"G"GABc "C"ded2|"D"AG^FG "G"AGd2|
"G"(c-d3) (D-d3)|"D"d3d AFA2|"G"GABc "C"ded2|"D"AG^FG "G"AGdd|
"G"D2GG GABG|"D"AAcc AF3|"G"GABc dedd|"D"AG^FG "G"BGdd|
"G"D2GG GABG|"D"A2cA GF3|"G"G2GG dedd|"D"AG^FG "G"BGdz|
"G"dzdzdzdz|"D"ABcc AF3|"G"GABC dedd|"D"AG^FG "G"BGdz|
"G"dzdzdzdz|"D"A3c AF3|"G"G3G dedd|"D"AF^FG "G"BGdd:||

